!!!!SEGMENT: pl-kk--kk-i-386--003-004_anonim--missa-3tia-offertorium-levavi-o-culos.krn
!!!cenid: 18xx:4519
!!!COM: Anonim
!!!COM-rismID: pe30004985
!!!CDT:
!!!CNT:
!!!OPR: Missa 3tia
!!!OTL: Offertorium/Levavi o culos
!!!OMV: 004
!!!PDT:
!!!AGN: Sacred
!!!YEC: Copyright 2022 Narodowy Instytut Fryderyka Chopina (https://polishscores.org)
!!!YEM: License CC-BY-4.0 (https://creativecommons.org/licenses/by/4.0)
!!!SMS-siglum: PL-Kk
!!!SMS-shelfmark: Kk.I.386
!!!SMS-variant:
!!!SMS-altvar:
!!!SMS-shelfwork: 003-004 M
!!!NIFC-rismSourceID: 1001218240
!!!NIFC-rismChildID: 1001218244
!!!NIFC-islandoraID: pl-kk:16060
!!!URL-pdf-islandora: https://repozytorium.nifc.pl/islandora/object/pl-kk%3A16060/datastream/PDF/view
!!!URL-scan: https://polish.musicsources.pl/pl/lokalizacje/galeria/rekopisy/7134/3 @EN{Scan on Polish Music Sources Website} @PL{Skany w portalu Dziedzictwo Muzyki Polskiej w otwartym dostępie}
!!!IIIF:
!!!ONB-nifc: UWAGA: Części Missy 3tia: Kyrie, Gloria, Graduale, Offertorium, Sanctus, Benedictus, Agnus. Zakres skanów: S -9-11, A – 19-21, T – 29-31, B – 39-41
!!!AIN: 1 alto 1 bass 1 soprn 1 tenor
!!!key:
**kern	**text	**kern	**text	**kern	**text	**kern	**text
*part4	*part4	*part3	*part3	*part2	*part2	*part1	*part1
*staff4	*staff4	*staff3	*staff3	*staff2	*staff2	*staff1	*staff1
*I"Basso.	*	*I"Tenore.	*	*I"Alto.	*	*I"Soprano.	*
*I'B.	*	*I'T.	*	*I'A.	*	*I'S.	*
*Ibass	*	*Itenor	*	*Ialto	*	*Isoprn	*
*ICvox	*	*ICvox	*	*ICvox	*	*ICvox	*
*clefF4	*	*clefC4	*	*clefC3	*	*clefC1	*
*k[f#]	*	*k[f#]	*	*k[f#]	*	*k[f#]	*
*G:	*	*G:	*	*G:	*	*G:	*
*M2/2	*	*M2/2	*	*M2/2	*	*M2/2	*
*met(c|)	*	*met(c|)	*	*met(c|)	*	*met(c|)	*
=1	=1	=1	=1	=1	=1	=1	=1
!LO:TX:a:t=in G.	!	!LO:TX:a:t=in G.	!	!LO:TX:a:t=in G.	!	!LO:TX:a:t=in G.	!
4G\	Le-	4G/	Le-	4b\	Le-	4dd\	Le-
8G\	-va-	8G/	-va-	8g\	-va-	8b\	-va-
8G\	-vi	8G/	-vi	8a\	-vi	8cc\	-vi
8G\	o	8G/	o	8b\	o	8dd\	o
16G\	cu-	16G/	cu-	16b\	cu-	16dd\	cu-
16G\	-los	16G/	-los	16b\	-los	16dd\	-los
8G\	un-	8d\	un-	8b\	un-	8gg\	un-
8G\	-de	8B\	-de	8g\	-de	8ee\	-de
=2	=2	=2	=2	=2	=2	=2	=2
4A\	ve-	4A\	ve-	4e\	ve-	4dd\	ve-
4D\	-ni	4A\	-ni	4f#\	-ni	4cc\	-ni
8G\	et	8G\	et	8g\	et	8b\	et
8G\	au-	8d\	au-	8g\	au-	8b\	au-
8G\	-xi-	8d\	-xi-	8g\	-xi-	8b\	-xi-
8E\	-li-	8e\	-li-	8g\	-li-	8cc#X\	-li-
!LO:LB:g=original	!	!LO:LB:g=original	!	!LO:LB:g=original	!	!	!
=3	=3	=3	=3	=3	=3	=3	=3
8F#\	-um,	8d\	-um,	8a\	-um	8dd\	-um,
8D\	au-	8d\	au-	8a\	au-	8dd\	au-
!	!	!	!	!	!	!LO:LB:g=original	!
8F#\	-xi-	8d\	-xi-	8a\	-xi-	8dd\	-xi-
16G\	-li-	16B\	-li-	16g\	-li-	16ee\	-li-
16G\	-um	16B\	-um	16g\	-um	16ee\	-um
*	*	*2\right	*	*	*	*	*
4A\	mi-	2A/	mi-	4f#\	mi-	4dd\	mi-
4AA/	.	.	.	4e\	.	4cc#X\	.
=4	=4	=4	=4	=4	=4	=4	=4
4D\	-chi,	4A/	-chi,	4f#\	-chi	4dd\	-chi
4r	.	4r	.	4r	.	4r	.
4D\	au-	4A/	au-	4f#\	au-	4dd\	au-
8.D\	-xi-	8.A/	-xi-	8.f#\	-xi-	8.dd\	-xi-
16D\	-li-	16A/	-li-	16f#\	-li-	16dd\	-li-
=5	=5	=5	=5	=5	=5	=5	=5
8.D\	-um,	8d\	-um,	8f#\	-um,	8a\	-um,
.	.	8d\	a	8g\	o	8a\	a
16E\	a	.	.	.	.	.	.
8F#\	Do-	8d\	Do-	8a\	Do-	8a\	Do-
8G\	-mi-	8d\	-mi-	8g\	-mi-	8b\	-mi-
8A\	-nu	8c\	-nu	8e\	-no	8ccn\	-nu
8G\	qui	8A\	qui	8e\	qui	8cc\	qui
8F#\	fe-	8d\	fe-	8a\	fe-	8cc\	fe-
8D\	-cit	8d\	-cit	8a\	-cit,	8dd\	-cit
!LO:LB:g=original	!	!LO:LB:g=original	!	!LO:LB:g=original	!	!	!
=6	=6	=6	=6	=6	=6	=6	=6
8G\L	ce-	4d\	ce-	4g\	ce-	4b\	ce-
8F#\J	.	.	.	.	.	.	.
8E\	-lum	8c\	-lum	8g\	-lum	8cc\	-lum
8C/	et	8e\	et	8g\	et	8b\	et
!	!	!	!	!	!	!LO:LB:g=original	!
8D\	ter-	8d\	ter-	8g\	ter-	8b\	ter-
8D\	-ram	8d\	-ram	8f#\	-ram	8a\	-ram,
8r	.	8r	.	8r	.	8r	.
8c\	qui	8A\	qui	8f#\	qui	8dd\	qui
=7	=7	=7	=7	=7	=7	=7	=7
4B\	fe-	4d\	fe-	4g\	fe-	8.gg\L	fe-
.	.	.	.	.	.	16dd\Jk	.
4B\	-cit	4d\	-cit	4g\	-cit	4dd\	-cit
4c\	ce-	4c\	fe-	4g\	fe-	4ee\	fe-
4C/	-lum	4c\	-cit	4g\	-cit	4ee\	-cit
=8	=8	=8	=8	=8	=8	=8	=8
!LO:TX:a:t=P:problem:mixed beam	!	!	!	!	!	!	!
8BB/L	ce-	8dL\	ce-	4g\	ce-	4dd\	ce-
8B\J	.	8GJ\	.	.	.	.	.
8c\	-lum	8c\	-lum	8g\	-lum	8ee\	-lum
8c\	et	8e\	et	8a\	et	8cc\	et
4d\	ter-	4.d\	ter-	4g\	ter-	4b\	ter-
4D\	.	.	.	4f#\	.	4a\	.
.	.	8c\	.	.	.	.	.
=9	=9	=9	=9	=9	=9	=9	=9
4G\	-ram,	4B\	-ram,	4g\	-ram,	4g\	-ram,
4r	.	4r	.	4r	.	4r	.
!LO:LB:g=original	!	!LO:LB:g=original	!	!	!	!	!
4E\	glo-	4e\	glo-	4g\	glo-	4b\	glo-
8G\	-ri-	8e\	-ri-	8g\	-ri-	8b\	-ri-
8E\	-a	8e\	-a	8g\	-a	8b\	-a
!	!	!	!	!LO:LB:g=original	!	!	!
=10	=10	=10	=10	=10	=10	=10	=10
4A\	Pa-	4e\	Pa-	4a\	Pa-	4cc\	Pa-
8AA/	-tri	8e\	-tri	8a\	-tri	8cc\	-tri
8AA/	et	8e\	et	8a\	et	8cc\	et
!	!	!	!	!	!	!LO:LB:g=original	!
8.D\	fi-	8.d\	fi-	8.f#\	fi-	8.a\	fi-
16D\	-li-	16d\	-li-	16f#\	-li-	16a\	-li-
4D\	-o	4d\	-o	4f#\	-o	4a\	-o
=11	=11	=11	=11	=11	=11	=11	=11
8G\	et	8d\	et	8g\	et	8b\	et
8G\	spi-	8d\	spi-	8g\	Spi-	8b\	Spi-
8F#\	-ri-	8d\	-ri-	8a\	-ri-	8cc\	-ri-
16G\	-tu-	16d\	-tu-	16g\	-tu-	16b\	-tu-
16G\	-i	16d\	-i	16g\	-i	16b\	-i
8D\	san-	8d\	san-	8g\	san-	8b\	San-
8D\	-cto	8d\	-cto,	8f#\	-cto	8a\	-cto
8B\	si-	8d\	si-	8f#\	si-	8dd\	si-
8A\	-cut	8d\	-cut	8f#\	-cut	8dd\	-cut
=12	=12	=12	=12	=12	=12	=12	=12
8G#X\	e-	8e\	e-	8b\	e-	8dd\	e-
8E\	-rat	8e\	-rat	8b\	-rat	8dd\	-rat
!LO:LB:g=original	!	!LO:LB:g=original	!	!	!	!	!
8A\	in	8e\	in	8a\	in	8cc\	in
8Gn\	prin-	8e\	prin-	8a\	prin-	8cc\	prin-
8F#\	-ci-	8.d\	-ci-	8.a\	-ci-	8.cc\	-ci-
8D\	-pi-	.	.	.	.	.	.
.	.	16d\	-pi-	16a\	-pi-	16cc\	-pi-
!	!	!	!	!LO:LB:g=original	!	!	!
8G\	-o	8d\	-o	8g\	-o	8b\	-o
8G\	et	8d\	et	8g\	et	8b\	et
!	!	!	!	!	!	!LO:PB:g=original	!
=13	=13	=13	=13	=13	=13	=13	=13
8.c\	nunc	8c\	nunc	8g\	nunc	8ee\	nunc
.	.	8c\	et	8g\	et	8ee\	et
16B\	et	.	.	.	.	.	.
8A\	sem-	8c\	sem-	8a\	sem-	8ee\	sem-
8G\	-per	8c\	-per	8a\	-per	8ee\	-per
8F#\	et	8A\	et	8a\	et	8dd\	et
8D\	in	8d\	in	8f#\	in	8dd\	in
8E\	se-	8d\	se-	8g\	se-	16dd\	se-
.	.	.	.	.	.	16dd\	-cu-
16F#\	-cu-	16d\	-cu-	16a\	-cu-	8dd\	-la
16F#\	-la	16d\	-la	16a\	-la	.	.
=14	=14	=14	=14	=14	=14	=14	=14
8G\	se-	8d\	se-	8b\	se-	8dd\	se-
8B\	-cu-	8d\	-cu-	8g\	-cu-	8gg\	-cu-
8c\	-lo-	8c\	-lo-	8g\	-lo-	8ee\	-lo-
8C/	-rum	8e\	-rum	8a\	-rum	8cc\	-rum
!LO:LB:g=original	!	!LO:LB:g=original	!	!	!	!	!
*2\right	*	*	*	*	*	*	*
2D\	a-	2d\	a-	4g\	a-	4b\	a-
.	.	.	.	4f#\	.	4a\	.
=15	=15	=15	=15	=15	=15	=15	=15
4GG/	-men.	4d\	-men.	4g\	-men.	4g\	-men.
4r	.	4r	.	4r	.	4r	.
2r	.	2r	.	2r	.	2r	.
==	==	==	==	==	==	==	==
*-	*-	*-	*-	*-	*-	*-	*-
!!!system-decoration: [(s1,s2,s3,s4)]
!!!ENC: Berenika Jozajtis
!!!END: 2023-11-03
!!!ENC: Leszek Kubiak
!!!END: 2024-06-28
